images/socials-icon-3.svg

<svg width="24" height="24" viewBox="0 0 24 24" fill="none" xmlns="http://www.w3.org/2000/svg">
<g clip-path="url(#clip0_2129_11217)">
<path d="M2.068 5.482L10.943 14.358C11.2056 14.6207 11.5562 14.7767 11.9272 14.7957C12.2981 14.8148 12.6629 14.6955 12.951 14.461L13.065 14.358L21.934 5.488C21.963 5.598 21.982 5.71 21.992 5.825L22 6V18C22.0002 18.5046 21.8096 18.9906 21.4665 19.3605C21.1234 19.7305 20.6532 19.9572 20.15 19.995L20 20H4C3.49542 20.0002 3.00943 19.8096 2.63945 19.4665C2.26947 19.1234 2.04284 18.6532 2.005 18.15L2 18V6C2 5.88 2.01 5.764 2.03 5.65L2.068 5.482ZM20 4C20.121 4 20.24 4.01 20.355 4.031L20.525 4.07L12.005 12.59L3.482 4.068C3.592 4.038 3.706 4.018 3.822 4.008L4 4H20Z" fill="white"/>
</g>
<defs>
<clipPath id="clip0_2129_11217">
<rect width="24" height="24" fill="white"/>
</clipPath>
</defs>
</svg>

<svg width="24" height="24" fill="none" xmlns="http://www.w3.org/2000/svg"><g clip-path="url(#clip0_2129_11217)"><path d="M2.068 5.482l8.875 8.876a1.5 1.5 0 002.008.103l.114-.103 8.869-8.87c.029.11.048.222.058.337L22 6v12a2 2 0 01-1.85 1.995L20 20H4a2 2 0 01-1.995-1.85L2 18V6c0-.12.01-.236.03-.35l.038-.168zM20 4c.121 0 .24.01.355.031l.17.039-8.52 8.52-8.523-8.522c.11-.03.224-.05.34-.06L4 4h16z" fill="#fff"/></g><defs><clipPath id="clip0_2129_11217"><path fill="#fff" d="M0 0h24v24H0z"/></clipPath></defs></svg>
